X: 65
T: Missa de septem doloribus / Credo
N: Derived from Rue1014c-Missa_de_septem_doloribus-Credo.krn
C: Pierre de la Rue
%%abc-version 2.0
%%abcx-abcm2ps-target-version 5.9.1 (29 Sep 2008)
%%abc-creator hum2abc beta
%%abcx-conversion-date 2019/02/17 08:01:12
%%abc-edited-by Jesse Rodin
%%abc-edited-by Chris Gage 05-23-2013
%%abcx-initial-encoding-date 2013/08/03/
%%humdrum-veritas 1114613586
%%humdrum-veritas-data 3648406742
%%linebreak <none>
%%barnumbers 0
L: 1/4
M: 2/1
Q: 1/2=120
V: 1 clef=treble
V: 2 clef=treble-8
V: 3 clef=treble-8
V: 4 clef=treble-8
V: 5 clef=bass
K: C
[V:1] z8 | 
[V:2] z8 | 
[V:3] z8 | 
[V:4] z8 | 
[V:5] D,8 | 
[V:1] z8 | 
[V:2] z8 | 
[V:3] z8 | 
[V:4] A8 | 
[V:5] F,8 | 
[V:1] z8 | 
[V:2] z8 | 
[V:3] z8 | 
[V:4] c8 | 
[V:5] E,4C,4 | 
[V:1] z8 | 
[V:2] z8 | 
[V:3] z8 | 
[V:4] B4G4 | 
[V:5] D,4B,,4 | 
[V:1] z8 | 
[V:2] z8 | 
[V:3] z8 | 
[V:4] A4F4 | 
[V:5] A,,8 | 
[V:1] z8 | 
[V:2] z8 | 
[V:3] z8 | 
[V:4] E8 | 
[V:5] z2A,,2A,,2A,,2- | 
[V:1] z8 | 
[V:2] z8 | 
[V:3] z8 | 
[V:4] z2E2E2E2- | 
[V:5] A,,2C,3D,E,F, | 
[V:1] z8 | 
[V:2] z8 | 
[V:3] z8 | 
[V:4] E2G3ABc | 
[V:5] G,6E,2 | 
[V:1] z8 | 
[V:2] z8 | 
[V:3] z8 | 
[V:4] d2c4B2 | 
[V:5] F,E,D,C,D,4 | 
[V:1] z8 | 
[V:2] z8 | 
[V:3] z8 | 
[V:4] c2G2c2d2- | 
[V:5] C,4A,,2B,,2- | 
[V:1] z8 | 
[V:2] d8 | 
[V:3] z8 | 
[V:4] dcBAB4 | 
[V:5] B,,A,,G,,F,,G,,4 | 
[V:1] A8 | 
[V:2] f6f2 | 
[V:3] z8 | 
[V:4] A8- | 
[V:5] F,,8 | 
[V:1] c6c2 | 
[V:2] e4c4 | 
[V:3] z8 | 
[V:4] A8 | 
[V:5] z8 | 
[V:1] B4G4 | 
[V:2] d4B4 | 
[V:3] z8 | 
[V:4] z8 | 
[V:5] z8 | 
[V:1] A4F4 | 
[V:2] A4z2d2- | 
[V:3] z8 | 
[V:4] z8 | 
[V:5] z8 | 
[V:1] E4z2A2- | 
[V:2] d2c2d2cB | 
[V:3] z8 | 
[V:4] z8 | 
[V:5] z8 | 
[V:1] AGG2A2GF | 
[V:2] A2c4BA | 
[V:3] z8 | 
[V:4] z8 | 
[V:5] z8 | 
[V:1] E2G4FE | 
[V:2] G3AB2c2- | 
[V:3] z8 | 
[V:4] z8 | 
[V:5] z8 | 
[V:1] D4C4 | 
[V:2] c2B2c2e2- | 
[V:3] z8 | 
[V:4] G4A2c2- | 
[V:5] z8 | 
[V:1] G6G2 | 
[V:2] e2d2e2dc | 
[V:3] z8 | 
[V:4] c2B2c2BA | 
[V:5] z8 | 
[V:1] G2G2E3F | 
[V:2] B4c4 | 
[V:3] z8 | 
[V:4] G4z2c2- | 
[V:5] z8 | 
[V:1] G2A4^G2 | 
[V:2] z8 | 
[V:3] z8 | 
[V:4] c2BAB2B2 | 
[V:5] z8 | 
[V:1] A4z2F2- | 
[V:2] z2c4BA | 
[V:3] z8 | 
[V:4] A8 | 
[V:5] z8 | 
[V:1] F2EDE2E2 | 
[V:2] BAd4^c2 | 
[V:3] z8 | 
[V:4] z4A4 | 
[V:5] z8 | 
[V:1] D4z4 | 
[V:2] d8 | 
[V:3] z8 | 
[V:4] _B3AF2G2- | 
[V:5] z2_B,,4A,,G,, | 
[V:1] A4B4- | 
[V:2] z4d4- | 
[V:3] z8 | 
[V:4] G2^F2G4- | 
[V:5] A,,2A,,2G,,3A,, | 
[V:1] B2AGA2c2 | 
[V:2] d2cBc2A2 | 
[V:3] z8 | 
[V:4] G4C4 | 
[V:5] B,,2C,2A,,4 | 
[V:1] B2A4G2- | 
[V:2] B2d3cB2 | 
[V:3] z8 | 
[V:4] z8 | 
[V:5] G,,2F,,2G,,4 | 
[V:1] GFF2G2FE | 
[V:2] A4G2d2- | 
[V:3] z8 | 
[V:4] z8 | 
[V:5] z2D,2E,2F,2 | 
[V:1] D2G3FED | 
[V:2] dcBAG4 | 
[V:3] z8 | 
[V:4] z4z2c2- | 
[V:5] G,3F,E,D,C,2- | 
[V:1] C2E2F2E2- | 
[V:2] z2c2A2c2- | 
[V:3] z8 | 
[V:4] cBAGF2G2- | 
[V:5] C,2C,2D,2C,2 | 
[V:1] EDD4^C2 | 
[V:2] cBAGA4 | 
[V:3] z8 | 
[V:4] GFEDE4 | 
[V:5] D,4A,,4 | 
[V:1] D8 | 
[V:2] F2f2f2f2 | 
[V:3] A8- | 
[V:4] D4z4 | 
[V:5] z2D,2D,2D,2 | 
[V:1] z8 | 
[V:2] e2f4ed | 
[V:3] A8 | 
[V:4] z8 | 
[V:5] C,2D,4C,B,, | 
[V:1] A4A2A2 | 
[V:2] c8 | 
[V:3] A8- | 
[V:4] z2E2F2E2 | 
[V:5] A,,8 | 
[V:1] E2A4GF | 
[V:2] z8 | 
[V:3] A8 | 
[V:4] C2F4ED | 
[V:5] z8 | 
[V:1] E8 | 
[V:2] z2A2A2A2 | 
[V:3] c8- | 
[V:4] C8 | 
[V:5] z2A,,2A,,2A,,2 | 
[V:1] z4z2A2 | 
[V:2] c2e3dcB | 
[V:3] c8 | 
[V:4] z8 | 
[V:5] A,,2C,3B,,A,,G,, | 
[V:1] A2A2A2c2- | 
[V:2] A2c3BAG | 
[V:3] c8- | 
[V:4] z2C4C2- | 
[V:5] F,,8 | 
[V:1] cBAGF3E | 
[V:2] F3GA4 | 
[V:3] c8 | 
[V:4] C2F3EC2 | 
[V:5] F,,4F,,4 | 
[V:1] D2G2D2G2- | 
[V:2] z2d2B2d2 | 
[V:3] B8- | 
[V:4] G2D2G3F | 
[V:5] G,,8- | 
[V:1] G2FED2ED | 
[V:2] G3ABcdB | 
[V:3] B8 | 
[V:4] E2D2G4 | 
[V:5] G,,8 | 
[V:1] E8- | 
[V:2] c8 | 
[V:3] G8- | 
[V:4] C4z2C2 | 
[V:5] z2C,2C,2C,2- | 
[V:1] E8 | 
[V:2] z8 | 
[V:3] G8- | 
[V:4] C2C3DEC | 
[V:5] C,D,E,F,G,2C,2- | 
[V:1] z8 | 
[V:2] z4z2e2 | 
[V:3] G8 | 
[V:4] D4C4 | 
[V:5] C,2B,,2C,2E,2 | 
[V:1] z8 | 
[V:2] f2e3dd2- | 
[V:3] A8- | 
[V:4] z2E2F2ED | 
[V:5] D,2A,,2D,2D,2 | 
[V:1] z8 | 
[V:2] d2^c2d4 | 
[V:3] A8 | 
[V:4] E4D4 | 
[V:5] A,,4z4 | 
[V:1] z2A4A2- | 
[V:2] z2d2d2d2 | 
[V:3] F8- | 
[V:4] A6A2 | 
[V:5] z2D,2D,2D,2 | 
[V:1] A2A2A2A2 | 
[V:2] d4d4 | 
[V:3] F8 | 
[V:4] A8 | 
[V:5] D,8 | 
[V:1] c2BAG3A | 
[V:2] e8- | 
[V:3] E8- | 
[V:4] A4E2G2 | 
[V:5] A,,4C,3B,, | 
[V:1] c2B4A2- | 
[V:2] e8 | 
[V:3] E8- | 
[V:4] A2B2c3A | 
[V:5] A,,2G,,2A,,4 | 
[V:1] A^GG2A2c2 | 
[V:2] z4z2e2 | 
[V:3] E8 | 
[V:4] B4A4 | 
[V:5] E,4A,,4 | 
[V:1] c3BA2G2 | 
[V:2] e3dc2B2 | 
[V:3] z8 | 
[V:4] z8 | 
[V:5] z8 | 
[V:1] F2E4D2 | 
[V:2] A2G2F4 | 
[V:3] z8 | 
[V:4] z8 | 
[V:5] z8 | 
[V:1] E2G2F3E/D/ | 
[V:2] E2e3dd2 | 
[V:3] z8 | 
[V:4] z8 | 
[V:5] z2C,2D,4 | 
[V:1] C8 | 
[V:2] e8 | 
[V:3] A8 | 
[V:4] z2c2c3B | 
[V:5] A,,2A,2A,3G, | 
[V:1] z8 | 
[V:2] z8 | 
[V:3] A4A4 | 
[V:4] A2G2F2E2- | 
[V:5] F,2E,2D,2C,2- | 
[V:1] z8 | 
[V:2] z8 | 
[V:3] G4G4 | 
[V:4] E2DCD4 | 
[V:5] C,2B,,A,,B,,4 | 
[V:1] z2A2A3G | 
[V:2] z2e2e3d | 
[V:3] A2c2c3B | 
[V:4] E8 | 
[V:5] A,,8 | 
[V:1] F2E2D2E2- | 
[V:2] c2B2A2G2 | 
[V:3] A2G2F2E2 | 
[V:4] z8 | 
[V:5] z8 | 
[V:1] E2D2E2c2 | 
[V:2] A4B2E2 | 
[V:3] F4E4 | 
[V:4] z4z2A2 | 
[V:5] z4z2A,,2 | 
[V:1] c3BA2G2 | 
[V:2] e8 | 
[V:3] z2c2c3B | 
[V:4] A4E4 | 
[V:5] A,,2A,,2C,4 | 
[V:1] F2E2D2E2- | 
[V:2] z8 | 
[V:3] A2G2F2E2 | 
[V:4] F2G2A4 | 
[V:5] D,2E,2F,2G,2 | 
[V:1] EDD4^C2 | 
[V:2] z8 | 
[V:3] F2EDE4 | 
[V:4] D4A4 | 
[V:5] A,4A,,4 | 
[V:1] D8 | 
[V:2] z8 | 
[V:3] D8 | 
[V:4] F3ED4 | 
[V:5] z2A,2A,2A,2- | 
[V:1] z8 | 
[V:2] z8 | 
[V:3] z8 | 
[V:4] z2d2d2d2- | 
[V:5] A,G,F,E,D,4 | 
[V:1] z8 | 
[V:2] z8 | 
[V:3] z8 | 
[V:4] dcBAG4 | 
[V:5] z2G,4G,2- | 
[V:1] z8 | 
[V:2] z8 | 
[V:3] z8 | 
[V:4] z2c2c2c2- | 
[V:5] G,F,E,D,C,2C,2 | 
[V:1] z8 | 
[V:2] z8 | 
[V:3] z8 | 
[V:4] c2BAGFGA | 
[V:5] F,4E,D,E,F, | 
[V:1] z8 | 
[V:2] z4d4 | 
[V:3] z8 | 
[V:4] B2c4B2 | 
[V:5] G,2E,2D,4 | 
[V:1] G4G2G2- | 
[V:2] e4e2e2- | 
[V:3] z4G4 | 
[V:4] c8- | 
[V:5] C,8- | 
[V:1] G2G2EDEF | 
[V:2] e2e2cBcd | 
[V:3] G2G4G2 | 
[V:4] c8 | 
[V:5] C,8 | 
[V:1] G2A4^G2 | 
[V:2] e2c2B4 | 
[V:3] E8 | 
[V:4] z8 | 
[V:5] z8 | 
[V:1] A8 | 
[V:2] A8 | 
[V:3] F2AGABc2 | 
[V:4] z2F4E2 | 
[V:5] z2D,4C,2 | 
[V:1] z4d4 | 
[V:2] z8 | 
[V:3] B2A4^G2 | 
[V:4] D2C2D4 | 
[V:5] D,2A,,2B,,4 | 
[V:1] c2A4c2- | 
[V:2] e4f2e2 | 
[V:3] A8 | 
[V:4] E4z2E2- | 
[V:5] A,,8- | 
[V:1] cBAGF2E2 | 
[V:2] c4d2c2 | 
[V:3] z4z2A2- | 
[V:4] E2E2D2E2 | 
[V:5] A,,4z2A,,2 | 
[V:1] z2F2E2D2 | 
[V:2] d2ABc2A2- | 
[V:3] A2F2G2F2- | 
[V:4] F2D2E2F2 | 
[V:5] D,2D,2C,2D,2- | 
[V:1] F2G2A4 | 
[V:2] A2d3^c^c2 | 
[V:3] F2EDE4 | 
[V:4] D4z4 | 
[V:5] D,2C,B,,A,,4 | 
[V:1] F8- | 
[V:2] d8- | 
[V:3] D8 | 
[V:4] z2A4A2- | 
[V:5] z8 | 
[V:1] F8 | 
[V:2] d8 | 
[V:3] z8 | 
[V:4] A2B2A2d2- | 
[V:5] D,8 | 
[V:1] z8 | 
[V:2] z4d4 | 
[V:3] z8 | 
[V:4] d2cBA4 | 
[V:5] D,4D,4 | 
[V:1] z2G4G2- | 
[V:2] B2e2e2d2 | 
[V:3] z8 | 
[V:4] G2c4B2 | 
[V:5] E,3F,G,4 | 
[V:1] G2A2G2c2- | 
[V:2] e8- | 
[V:3] z8 | 
[V:4] c4c2A2- | 
[V:5] C,8- | 
[V:1] c2BAG4 | 
[V:2] e8 | 
[V:3] z8 | 
[V:4] A2GFE4 | 
[V:5] C,8 | 
[V:1] F8- | 
[V:2] z8 | 
[V:3] A2B2A2d2- | 
[V:4] D8 | 
[V:5] D,8 | 
[V:1] F8 | 
[V:2] z4d4 | 
[V:3] d2cBA4 | 
[V:4] z8 | 
[V:5] D,4D,4 | 
[V:1] z2G4G2- | 
[V:2] B2e2e2d2 | 
[V:3] G2c4B2 | 
[V:4] z8 | 
[V:5] E,3F,G,4 | 
[V:1] G2A2G3A | 
[V:2] e2c4BA | 
[V:3] c8 | 
[V:4] z8 | 
[V:5] C,8 | 
[V:1] B2c4B2 | 
[V:2] G2A2G4 | 
[V:3] d2c2d4 | 
[V:4] z8 | 
[V:5] z4G,,4 | 
[V:1] c4z4 | 
[V:2] E8 | 
[V:3] c8 | 
[V:4] z2G2A2c2- | 
[V:5] A,,2C,3B,,A,,2- | 
[V:1] z8 | 
[V:2] z8 | 
[V:3] z4z2c2 | 
[V:4] c2BAB2A2- | 
[V:5] A,,2G,,F,,G,,2F,,2 | 
[V:1] z4G4 | 
[V:2] z8 | 
[V:3] c4B4 | 
[V:4] AGF4E2 | 
[V:5] A,,4G,,4 | 
[V:1] A2c3BA2- | 
[V:2] z2c2c4 | 
[V:3] A8 | 
[V:4] F8 | 
[V:5] F,,8 | 
[V:1] A2GFG2CD | 
[V:2] d4e2e2 | 
[V:3] F4E2A2- | 
[V:4] D4C4- | 
[V:5] z8 | 
[V:1] E2F4E2 | 
[V:2] c2BAG4 | 
[V:3] A2GFG4 | 
[V:4] C4z2c2 | 
[V:5] z4C,4 | 
[V:1] F8 | 
[V:2] d8 | 
[V:3] F8 | 
[V:4] B2A3GF2- | 
[V:5] D,2F,3E,D,2- | 
[V:1] z8 | 
[V:2] d4e4 | 
[V:3] z4z2c2 | 
[V:4] F2EDCDEF | 
[V:5] D,2C,B,,A,,2C,2- | 
[V:1] z4G4 | 
[V:2] z8 | 
[V:3] c4B4 | 
[V:4] G2F4E2 | 
[V:5] C,B,,A,,2G,,4 | 
[V:1] A2c3BA2- | 
[V:2] z2c2c4 | 
[V:3] A8 | 
[V:4] F8 | 
[V:5] F,,8 | 
[V:1] A2GFG2C2 | 
[V:2] d4e3d | 
[V:3] F4E4 | 
[V:4] D4C4 | 
[V:5] z4z2A,,2 | 
[V:1] D2C2D2E2 | 
[V:2] B2c2B2e2 | 
[V:3] z2E2D2G2- | 
[V:4] z8 | 
[V:5] G,,2A,,2B,,2C,2 | 
[V:1] F4G4 | 
[V:2] c2d4cB | 
[V:3] GFF4E2 | 
[V:4] z8 | 
[V:5] A,,2B,,2G,,4 | 
[V:1] A8- | 
[V:2] A4z4 | 
[V:3] F2A4G2 | 
[V:4] z2D2F2G2 | 
[V:5] F,,2F,4E,2 | 
[V:1] A8 | 
[V:2] z4d4 | 
[V:3] F2E2F4 | 
[V:4] A3GFGAB | 
[V:5] D,2C,2D,4 | 
[V:1] z2c4B2 | 
[V:2] e4e4 | 
[V:3] E8 | 
[V:4] c2A3GE2 | 
[V:5] A,,8- | 
[V:1] A2GFE2D2 | 
[V:2] c3de2f2- | 
[V:3] A8- | 
[V:4] F2EDC2F2 | 
[V:5] A,,8 | 
[V:1] F4E4 | 
[V:2] fed4^c2 | 
[V:3] A8 | 
[V:4] D4E4 | 
[V:5] z4A,,4 | 
[V:1] D2A4G2 | 
[V:2] d2f4e2 | 
[V:3] A8- | 
[V:4] F4D2E2 | 
[V:5] D,3E,F,2C,2 | 
[V:1] F2EDC3D | 
[V:2] d4e4- | 
[V:3] A8- | 
[V:4] F4E2A2- | 
[V:5] D,4A,,4 | 
[V:1] E4E4 | 
[V:2] e2c2c4- | 
[V:3] A8- | 
[V:4] A2GFE4- | 
[V:5] A,,8- | 
[V:1] E8 ||  
[V:2] c8 ||  
[V:3] A8 ||  
[V:4] E8 ||  
[V:5] A,,8 ||  
[V:1]  [K:C] [K:clef=treble][M:2/1]z8 | 
[V:2]  [K:C] [K:clef=treble-8][M:2/1]e4f4 | 
[V:3]  [K:C] [K:clef=treble-8][M:2/1]A8 | 
[V:4]  [K:C] [K:clef=treble-8][M:2/1]z8 | 
[V:5]  [K:C] [K:clef=bass][M:2/1]A,,4D,4 | 
[V:1] z4E4 | 
[V:2] e4c4 | 
[V:3] A4A4 | 
[V:4] z4E4 | 
[V:5] C,4A,,4 | 
[V:1] A4G4 | 
[V:2] z8 | 
[V:3] c8- | 
[V:4] F4E4 | 
[V:5] z8 | 
[V:1] E8 | 
[V:2] z8 | 
[V:3] c8 | 
[V:4] C4z2E2 | 
[V:5] z2A,,2A,,2A,,2 | 
[V:1] z8 | 
[V:2] z8 | 
[V:3] c6c2 | 
[V:4] E3FG2A2 | 
[V:5] C,3D,E,2F,2 | 
[V:1] z8 | 
[V:2] z8 | 
[V:3] B2A2B4 | 
[V:4] E2F2E4 | 
[V:5] G,2A,3^G,G,2 | 
[V:1] z4z2E2 | 
[V:2] z2A2c2c2 | 
[V:3] A8 | 
[V:4] z8 | 
[V:5] A,4A,,4 | 
[V:1] E2E2G3A | 
[V:2] c3de4- | 
[V:3] z8 | 
[V:4] z8 | 
[V:5] z8 | 
[V:1] B2c2B2A2- | 
[V:2] e2c2dcBA | 
[V:3] z8 | 
[V:4] z8 | 
[V:5] z8 | 
[V:1] A^GG2A4 | 
[V:2] B4A4 | 
[V:3] z8 | 
[V:4] z8 | 
[V:5] z8 | 
[V:1] c8 | 
[V:2] e8 | 
[V:3] A8 | 
[V:4] E8 | 
[V:5] A,,8 | 
[V:1] c4B4- | 
[V:2] A4B4 | 
[V:3] F4G4- | 
[V:4] C4D4- | 
[V:5] A,,4G,,4- | 
[V:1] B4G4 | 
[V:2] G4B4 | 
[V:3] G4E4 | 
[V:4] D4G4 | 
[V:5] G,,4G,,4 | 
[V:1] A4A2F2- | 
[V:2] A2d4cB | 
[V:3] F4D4 | 
[V:4] F8 | 
[V:5] D,8 | 
[V:1] F2EDF2E2- | 
[V:2] d2A2c3B | 
[V:3] A6G2 | 
[V:4] D4C4 | 
[V:5] D,4A,,4- | 
[V:1] E2D3^CC2 | 
[V:2] A4A4 | 
[V:3] F2EDE4 | 
[V:4] z4E4 | 
[V:5] A,,4A,,4 | 
[V:1] D8 | 
[V:2] z8 | 
[V:3] D8 | 
[V:4] F3GA2B2 | 
[V:5] z8 | 
[V:1] z4E4 | 
[V:2] z8 | 
[V:3] z8 | 
[V:4] c2d4^c2 | 
[V:5] z8 | 
[V:1] F3GA2B2 | 
[V:2] z4f4 | 
[V:3] z8 | 
[V:4] d8 | 
[V:5] z8 | 
[V:1] c2d4c2 | 
[V:2] e2d2e4 | 
[V:3] z8 | 
[V:4] z8 | 
[V:5] z8 | 
[V:1] B2A4G2 | 
[V:2] d2f4e2 | 
[V:3] z8 | 
[V:4] z8 | 
[V:5] z8 | 
[V:1] F2EDE4 | 
[V:2] d2cBc2A2 | 
[V:3] z8 | 
[V:4] z8 | 
[V:5] z4A,,4 | 
[V:1] z4z2E2 | 
[V:2] G2G2c4 | 
[V:3] z8 | 
[V:4] z8 | 
[V:5] E,4E,4 | 
[V:1] G4G4 | 
[V:2] B2e4d2 | 
[V:3] z8 | 
[V:4] z8 | 
[V:5] E,8- | 
[V:1] G4G4 | 
[V:2] c2BAB4 | 
[V:3] z8 | 
[V:4] z4G4 | 
[V:5] E,8 | 
[V:1] A8 | 
[V:2] A8 | 
[V:3] z8 | 
[V:4] c4c2A2- | 
[V:5] A,,3B,,C,2D,2 | 
[V:1] z8 | 
[V:2] z8 | 
[V:3] z8 | 
[V:4] AGF2E4 | 
[V:5] E,2D,3^C,C,2 | 
[V:1] z4z2D2 | 
[V:2] z8 | 
[V:3] d8 | 
[V:4] D2D2F3G | 
[V:5] D,8- | 
[V:1] F3GA2B2 | 
[V:2] z8 | 
[V:3] d4d4 | 
[V:4] A2D2F3G | 
[V:5] D,8 | 
[V:1] c2BAG2A2- | 
[V:2] z8 | 
[V:3] c4c4 | 
[V:4] A2GFE2F2- | 
[V:5] z8 | 
[V:1] A2GFE2FE | 
[V:2] z8 | 
[V:3] c8 | 
[V:4] FEFGA4 | 
[V:5] z8 | 
[V:1] F4z4 | 
[V:2] A4_B2A2- | 
[V:3] d8- | 
[V:4] D8 | 
[V:5] D,4D,4 | 
[V:1] A4_B2A2- | 
[V:2] A2F2G2A2 | 
[V:3] d8 | 
[V:4] z8 | 
[V:5] D,4G,,2D,2 | 
[V:1] A2G2FGA_B | 
[V:2] FGA_BA_Bcd | 
[V:3] z8 | 
[V:4] z8 | 
[V:5] D,2E,2F,3D, | 
[V:1] A2G3^FF2 | 
[V:2] c2_B2A4 | 
[V:3] z8 | 
[V:4] z8 | 
[V:5] F,2G,2D,4 | 
[V:1] G4z2G2 | 
[V:2] G2G2G2G2 | 
[V:3] d8 | 
[V:4] D4D2D2 | 
[V:5] G,,2G,,2G,,2G,,2 | 
[V:1] G2G2G2G2 | 
[V:2] G4B4 | 
[V:3] d4d4 | 
[V:4] D2G4FE | 
[V:5] G,,4G,,4 | 
[V:1] A4B4 | 
[V:2] A2A4^G2 | 
[V:3] d8 | 
[V:4] F2F2D4 | 
[V:5] D,4B,,4 | 
[V:1] c8 | 
[V:2] A8 | 
[V:3] c8 | 
[V:4] E8 | 
[V:5] A,,2A,,2A,,2A,,2 | 
[V:1] z8 | 
[V:2] z8 | 
[V:3] A4G3A | 
[V:4] z8 | 
[V:5] C,3D,E,F,G,2- | 
[V:1] z8 | 
[V:2] z4f4 | 
[V:3] B2c4B2 | 
[V:4] z8 | 
[V:5] G,F,E,2D,4 | 
[V:1] z2G2G2G2 | 
[V:2] e2e2c4 | 
[V:3] c8 | 
[V:4] G4G2G2 | 
[V:5] C,8 | 
[V:1] G2G2A2B2 | 
[V:2] e4d2d2 | 
[V:3] z8 | 
[V:4] E2E2F2G2 | 
[V:5] z8 | 
[V:1] c2BAG2G2 | 
[V:2] c4z2e2 | 
[V:3] z8 | 
[V:4] A2GFE2E2 | 
[V:5] z8 | 
[V:1] A2G2A2GF | 
[V:2] f2e2c2e2- | 
[V:3] z8 | 
[V:4] D2E2F2G2 | 
[V:5] z8 | 
[V:1] GFEDE4 | 
[V:2] e2d3^c^c2 | 
[V:3] z8 | 
[V:4] A2_B2A4 | 
[V:5] z8 | 
[V:1] D4A4- | 
[V:2] d8 | 
[V:3] A8 | 
[V:4] F4F4 | 
[V:5] D,8 | 
[V:1] A4A4 | 
[V:2] z4d4 | 
[V:3] A4A4 | 
[V:4] F4F4 | 
[V:5] D,4D,4 | 
[V:1] B4d4 | 
[V:2] d4B4 | 
[V:3] G4G4 | 
[V:4] D4G4 | 
[V:5] B,,8 | 
[V:1] c4c2B2- | 
[V:2] e8 | 
[V:3] A4E4 | 
[V:4] C4G4 | 
[V:5] A,,4C,2D,2 | 
[V:1] BAA4^G2 | 
[V:2] e4e4 | 
[V:3] G2A2B4 | 
[V:4] E2F2G4 | 
[V:5] E,8 | 
[V:1] A8- | 
[V:2] f4f2e2- | 
[V:3] A8- | 
[V:4] F4D2E2 | 
[V:5] z2D,2D,2C,2 | 
[V:1] A8 | 
[V:2] e2d3^c^c2 | 
[V:3] A8 | 
[V:4] F3DE4 | 
[V:5] D,4A,,4 | 
[V:1] z8 | 
[V:2] d8 | 
[V:3] z8 | 
[V:4] D4A2A2 | 
[V:5] z2D,2D,2F,2- | 
[V:1] z8 | 
[V:2] z8 | 
[V:3] z8 | 
[V:4] c4B2A2- | 
[V:5] F,2E,2D,4 | 
[V:1] z8 | 
[V:2] z8 | 
[V:3] z8 | 
[V:4] A2c4B2 | 
[V:5] F,4E,2D,2 | 
[V:1] z8 | 
[V:2] z8 | 
[V:3] z8 | 
[V:4] A2c4BA | 
[V:5] F,3E,C,4 | 
[V:1] z8 | 
[V:2] z8 | 
[V:3] z8 | 
[V:4] G4z2G2 | 
[V:5] z2C,2D,2E,2 | 
[V:1] z8 | 
[V:2] z8 | 
[V:3] z8 | 
[V:4] A2B2c2d2 | 
[V:5] F,2G,2C,2F,2- | 
[V:1] z8 | 
[V:2] z8 | 
[V:3] z8 | 
[V:4] G2c3BB2 | 
[V:5] F,E,D,C,D,4 | 
[V:1] z8 | 
[V:2] G4A2G2- | 
[V:3] z8 | 
[V:4] c8- | 
[V:5] C,8- | 
[V:1] G4A2G2- | 
[V:2] G2E4G2 | 
[V:3] z8 | 
[V:4] c8 | 
[V:5] C,8 | 
[V:1] G2E4G2 | 
[V:2] A2c4B2 | 
[V:3] z8 | 
[V:4] z8 | 
[V:5] z8 | 
[V:1] A2c4B2 | 
[V:2] c2A4GF | 
[V:3] z8 | 
[V:4] z8 | 
[V:5] z8 | 
[V:1] c2A3GF2- | 
[V:2] E2F2D2d2- | 
[V:3] z8 | 
[V:4] z8 | 
[V:5] z8 | 
[V:1] FEDCD4 | 
[V:2] dcc4B2 | 
[V:3] z8 | 
[V:4] z8 | 
[V:5] z8 | 
[V:1] E4G4 | 
[V:2] c4e4 | 
[V:3] c8 | 
[V:4] G4G2c2- | 
[V:5] C,8 | 
[V:1] G4G4 | 
[V:2] e4e4 | 
[V:3] c4c4 | 
[V:4] c2BAG4 | 
[V:5] C,4C,4 | 
[V:1] A4A4 | 
[V:2] f4f4 | 
[V:3] c4c4 | 
[V:4] F2F2A4- | 
[V:5] F,4F,4 | 
[V:1] A4A4 | 
[V:2] f4f4 | 
[V:3] c4c4 | 
[V:4] A2GFA2F2 | 
[V:5] F,4F,4 | 
[V:1] G8 | 
[V:2] e8 | 
[V:3] c8 | 
[V:4] c2BAG4 | 
[V:5] C,8- | 
[V:1] G4G2E2- | 
[V:2] e4e2c2- | 
[V:3] G6G2 | 
[V:4] c3cc2G2- | 
[V:5] C,8 | 
[V:1] E2DCD2E2 | 
[V:2] c2BAB2c2- | 
[V:3] G4G4 | 
[V:4] G2FED2C2 | 
[V:5] G,,8 | 
[V:1] D4E2E2 | 
[V:2] c2B2c4 | 
[V:3] G8 | 
[V:4] D4C4 | 
[V:5] G,,4C,4- | 
[V:1] G2A3GG2 | 
[V:2] z8 | 
[V:3] E4z2E2 | 
[V:4] z2C2D2E2 | 
[V:5] C,2A,,2B,,2C,2 | 
[V:1] A2A2c4- | 
[V:2] c4c4 | 
[V:3] F4A4 | 
[V:4] C2F4ED | 
[V:5] F,,8- | 
[V:1] c2B2A2G2 | 
[V:2] A4A4 | 
[V:3] c6B2 | 
[V:4] C8 | 
[V:5] F,,8 | 
[V:1] F2E2D2E2- | 
[V:2] c4B2c2- | 
[V:3] A2G2F2E2 | 
[V:4] z8 | 
[V:5] z2C,2D,2C,2 | 
[V:1] E2D4^C2 | 
[V:2] cBG2A4 | 
[V:3] C2D2E4 | 
[V:4] z8 | 
[V:5] A,,2B,,2A,,4 | 
[V:1] D8 | 
[V:2] F4D4 | 
[V:3] D8- | 
[V:4] z2F4F2 | 
[V:5] _B,,8 | 
[V:1] z2F4F2 | 
[V:2] z2d4d2 | 
[V:3] D8- | 
[V:4] G2F2D4 | 
[V:5] _B,,6B,,2 | 
[V:1] G2F2D2F2- | 
[V:2] d6d2 | 
[V:3] D8 | 
[V:4] z2F4ED | 
[V:5] _B,,4B,,4 | 
[V:1] F2EDC2C2 | 
[V:2] c3BA4 | 
[V:3] z4F4 | 
[V:4] A4A4 | 
[V:5] F,,4A,,4 | 
[V:1] E3FG4 | 
[V:2] z8 | 
[V:3] G4E4 | 
[V:4] _B8 | 
[V:5] G,,4G,,4 | 
[V:1] A4z2A2- | 
[V:2] c6c2 | 
[V:3] F8 | 
[V:4] A8 | 
[V:5] F,,8 | 
[V:1] A2A2A2A2 | 
[V:2] d4f4 | 
[V:3] D8 | 
[V:4] z4A4 | 
[V:5] z4F,4 | 
[V:1] G4A2G2- | 
[V:2] e4e2e2- | 
[V:3] E8 | 
[V:4] c2c2c4 | 
[V:5] C,2C,2C,4 | 
[V:1] G2FEF2G2 | 
[V:2] e2dcd2e2 | 
[V:3] z8 | 
[V:4] c4z4 | 
[V:5] C,4z4 | 
[V:1] E4z2G2 | 
[V:2] c4z2e2 | 
[V:3] E8 | 
[V:4] z2c2c2c2 | 
[V:5] z2C,2C,2C,2 | 
[V:1] A2G2E2G2- | 
[V:2] e2e2c2e2- | 
[V:3] E4E4 | 
[V:4] c2BAG4- | 
[V:5] C,8 | 
[V:1] G2FED2GA | 
[V:2] e2dcB2e2 | 
[V:3] D8 | 
[V:4] G8 | 
[V:5] G,,8 | 
[V:1] B2c4B2 | 
[V:2] d2c2d4 | 
[V:3] z8 | 
[V:4] z8 | 
[V:5] z4G,4 | 
[V:1] c8 | 
[V:2] c8 | 
[V:3] z8 | 
[V:4] z4z2G2 | 
[V:5] A,3G,F,2E,2 | 
[V:1] z8 | 
[V:2] z8 | 
[V:3] z2E2F4 | 
[V:4] A2c4B2 | 
[V:5] D,2C,2D,4 | 
[V:1] z8 | 
[V:2] z8 | 
[V:3] E4C3D | 
[V:4] A2G2F2E2- | 
[V:5] C,4A,,3B,, | 
[V:1] z4d4 | 
[V:2] z8 | 
[V:3] E2F2D4 | 
[V:4] E2A4^G2 | 
[V:5] C,2D,2B,,4 | 
[V:1] c3BA2GF | 
[V:2] e4e2e2 | 
[V:3] E8 | 
[V:4] A8- | 
[V:5] A,,8- | 
[V:1] E2A2A2A2- | 
[V:2] c2c2(3c2d2e2 | 
[V:3] E4E4 | 
[V:4] A8- | 
[V:5] A,,8- | 
[V:1] A2GFE4 | 
[V:2] A2d3^c^c2 | 
[V:3] F2D2E4 | 
[V:4] A8 | 
[V:5] A,,8 | 
[V:1] F8 | 
[V:2] d8 | 
[V:3] D8 | 
[V:4] z4z2A2 | 
[V:5] z2D,2D,3E, | 
[V:1] z8 | 
[V:2] z8 | 
[V:3] z8 | 
[V:4] A3BcAc2- | 
[V:5] F,D,F,4E,D, | 
[V:1] z8 | 
[V:2] z8 | 
[V:3] z8 | 
[V:4] c2BAG4 | 
[V:5] C,2F,4E,2 | 
[V:1] z8 | 
[V:2] z8 | 
[V:3] z8 | 
[V:4] z2F2A3B | 
[V:5] F,8 | 
[V:1] z8 | 
[V:2] z8 | 
[V:3] z8 | 
[V:4] cAc4BA | 
[V:5] z2F,,2A,,3B,, | 
[V:1] z8 | 
[V:2] z8 | 
[V:3] z8 | 
[V:4] G4c4 | 
[V:5] C,B,,C,4B,,A,, | 
[V:1] z8 | 
[V:2] z8 | 
[V:3] z8 | 
[V:4] B2G2A2G2- | 
[V:5] G,,2C,4B,,2 | 
[V:1] c4B2G2 | 
[V:2] z2A2G2G2 | 
[V:3] z8 | 
[V:4] GFF4E2 | 
[V:5] A,,2F,,2G,,4 | 
[V:1] A3BcBc2- | 
[V:2] c2c2A4 | 
[V:3] z8 | 
[V:4] F8 | 
[V:5] F,,8 | 
[V:1] c2BAG4 | 
[V:2] A3BcBc2- | 
[V:3] z8 | 
[V:4] z8 | 
[V:5] z8 | 
[V:1] c4B2G2 | 
[V:2] c2BAG2G2 | 
[V:3] z8 | 
[V:4] z8 | 
[V:5] z8 | 
[V:1] A2GFE2G2- | 
[V:2] c6_BA | 
[V:3] z8 | 
[V:4] z8 | 
[V:5] z8 | 
[V:1] GFF4E2 | 
[V:2] _BAGFG4 | 
[V:3] z8 | 
[V:4] z4C4 | 
[V:5] z8 | 
[V:1] F8 | 
[V:2] F4z2c2 | 
[V:3] A8 | 
[V:4] D2F4ED | 
[V:5] z2F,,2F,,2F,,2 | 
[V:1] z2E2E2E2 | 
[V:2] c2c4BA | 
[V:3] G4G4 | 
[V:4] E2C2C4 | 
[V:5] C,8 | 
[V:1] G8 | 
[V:2] B8 | 
[V:3] G8 | 
[V:4] z4z2D2 | 
[V:5] z2G,,2G,,2G,,2- | 
[V:1] z4z2D2 | 
[V:2] z2d2d2d2- | 
[V:3] z2D2D2D2 | 
[V:4] D2D3EFG | 
[V:5] G,,A,,B,,C,D,4 | 
[V:1] D2D3EFG | 
[V:2] d2f4ed | 
[V:3] F4D4 | 
[V:4] A4B4 | 
[V:5] D,4B,,4 | 
[V:1] A4c4 | 
[V:2] c2c2e4- | 
[V:3] E8- | 
[V:4] c2A4GF | 
[V:5] A,,8 | 
[V:1] B2A3^GG2 | 
[V:2] e4e4 | 
[V:3] E8 | 
[V:4] G2A2B4 | 
[V:5] z8 | 
[V:1] A8 | 
[V:2] c4A4 | 
[V:3] z8 | 
[V:4] A4z2E2 | 
[V:5] z2A,,2A,,2A,,2- | 
[V:1] z4z2c2 | 
[V:2] z8 | 
[V:3] z8 | 
[V:4] E2E3FGA | 
[V:5] A,,B,,C,D,E,4 | 
[V:1] B2c2d3B | 
[V:2] z8 | 
[V:3] z4D4 | 
[V:4] B2A4^G2 | 
[V:5] D,2C,2B,,4 | 
[V:1] c6A2- | 
[V:2] e6e2 | 
[V:3] E4E4 | 
[V:4] A8- | 
[V:5] A,,8- | 
[V:1] A2GFE2D2 | 
[V:2] e4c2dc | 
[V:3] C3DE2F2- | 
[V:4] A8 | 
[V:5] A,,4z2D,2- | 
[V:1] FEDCD4 | 
[V:2] BAA4^G2 | 
[V:3] F2E4D2 | 
[V:4] z8 | 
[V:5] D,A,,C,2B,,4 | 
[V:1] C4z2C2 | 
[V:2] A8 | 
[V:3] E4z2E2 | 
[V:4] z8 | 
[V:5] A,,8 | 
[V:1] D2C2D2E2 | 
[V:2] z8 | 
[V:3] F2E2F2G2 | 
[V:4] z8 | 
[V:5] z8 | 
[V:1] C4z4 | 
[V:2] z2c2d2c2 | 
[V:3] E4z4 | 
[V:4] z2E2D2E2 | 
[V:5] A,,4B,,2A,,2 | 
[V:1] z4z2C2 | 
[V:2] d2B2c4 | 
[V:3] z4z2E2 | 
[V:4] D2G2E4 | 
[V:5] B,,2G,,2A,,4 | 
[V:1] D2E2F2ED | 
[V:2] z8 | 
[V:3] F2E2A2GF | 
[V:4] z8 | 
[V:5] z8 | 
[V:1] C4z4 | 
[V:2] z2c2d2c2 | 
[V:3] E4z2E2 | 
[V:4] z2A2G2A2 | 
[V:5] A,,4B,,2A,,2 | 
[V:1] z2E2F2E2 | 
[V:2] d2G2c4 | 
[V:3] F2G2A4 | 
[V:4] F2EDC4 | 
[V:5] D,2C,B,,A,,4 | 
[V:1] B2c2B2A2- | 
[V:2] z2c2d2c2 | 
[V:3] E4z2E2 | 
[V:4] z2A2G2A2 | 
[V:5] z2A,,2B,,2C,2 | 
[V:1] AGF2E2D2 | 
[V:2] f3ec2d2- | 
[V:3] F2D2E2F2 | 
[V:4] F3GA4- | 
[V:5] D,4A,,4 | 
[V:1] A4A2G2 | 
[V:2] dcc2d2B2 | 
[V:3] E4D4 | 
[V:4] A4F2G2 | 
[V:5] z2A,,2D,2G,,2 | 
[V:1] E2A3GFE | 
[V:2] c2A2ABc2 | 
[V:3] A8 | 
[V:4] C8 | 
[V:5] A,,2F,,3G,,A,,2 | 
[V:1] D4D2E2- | 
[V:2] d4_B4 | 
[V:3] F4G4 | 
[V:4] z8 | 
[V:5] _B,,4G,,4 | 
[V:1] EDD4^C2 | 
[V:2] A8 | 
[V:3] E3DE4 | 
[V:4] z4E4 | 
[V:5] A,,8 | 
[V:1] D8- | 
[V:2] z4A4 | 
[V:3] D8- | 
[V:4] F4F4 | 
[V:5] z2D,4C,2 | 
[V:1] D8- | 
[V:2] _B8 | 
[V:3] D8- | 
[V:4] G8 | 
[V:5] _B,,2A,,2G,,4 | 
[V:1] D8 |]  
[V:2] A8 |]  
[V:3] D8 |]  
[V:4] F8 |]  
[V:5] D,,8 |]  



